icons/editor-italics-2-filled.svg

<svg width="25" height="24" viewBox="0 0 25 24" fill="none" xmlns="http://www.w3.org/2000/svg">
<g id="italics-02">
<path id="Icon" d="M10.814 16.8004L13.5873 7.20039M10.814 16.8004H7.92826M10.814 16.8004H13.6997M13.5873 7.20039H10.7016M13.5873 7.20039H16.473M5.30039 21.6004H19.7004C21.0259 21.6004 22.1004 20.5259 22.1004 19.2004V4.80039C22.1004 3.47491 21.0259 2.40039 19.7004 2.40039H5.30039C3.97491 2.40039 2.90039 3.47491 2.90039 4.80039V19.2004C2.90039 20.5259 3.97491 21.6004 5.30039 21.6004Z" stroke="black" stroke-width="2" stroke-linecap="round" stroke-linejoin="round"/>
</g>
</svg>

<svg xmlns="http://www.w3.org/2000/svg" width="25" height="24" fill="none" viewBox="0 0 25 24"><path stroke="currentColor" stroke-linecap="round" stroke-linejoin="round" stroke-width="2" d="m10.814 16.8 2.773-9.6m-2.773 9.6H7.928m2.886 0H13.7m-.113-9.6h-2.885m2.885 0h2.886M5.3 21.6h14.4a2.4 2.4 0 0 0 2.4-2.4V4.8a2.4 2.4 0 0 0-2.4-2.4H5.3a2.4 2.4 0 0 0-2.4 2.4v14.4a2.4 2.4 0 0 0 2.4 2.4"/></svg>
